X:81
T:Cowboyâ€™s Dream
N:From Mac Benford, Backwoods Banjo, Rounder 0115
N:Transcribed by Bruce Thomson
M:C
L:1/8
K:D
z6Ac|:â€Dâ€defg afed|â€Aâ€cdec d2Ac|â€Dâ€defg afed|â€Aâ€c2A4Ac|
â€œDâ€defg afed|â€Aâ€cdecd4|â€Gâ€B2BA BcdB|[1â€³Aâ€AGFEâ€Dâ€D2Ac:|[2â€ Aâ€AGFEâ€Dâ€D2AG|]
|:â€Dâ€F2D3EFD|â€Aâ€E2A,6|â€Dâ€DCDE FGAB|d2f2edAG|F2D3EFD|
â€œAâ€E2A,6|DCDE FAdB[1|AGFEâ€Dâ€D2AG:|[2AGFEâ€Dâ€D4|]

